build/assets/img/partners/google.svg

<svg width="184" height="62" viewBox="0 0 184 62" fill="none" xmlns="http://www.w3.org/2000/svg">
<path d="M78.3022 31.7846C78.3022 40.3876 71.5442 46.7269 63.2507 46.7269C54.9572 46.7269 48.1992 40.3876 48.1992 31.7846C48.1992 23.121 54.9572 16.8423 63.2507 16.8423C71.5442 16.8423 78.3022 23.121 78.3022 31.7846ZM71.7133 31.7846C71.7133 26.4086 67.7966 22.7303 63.2507 22.7303C58.7048 22.7303 54.788 26.4086 54.788 31.7846C54.788 37.1067 58.7048 40.8389 63.2507 40.8389C67.7966 40.8389 71.7133 37.1 71.7133 31.7846Z" fill="#4F4F4F"/>
<path d="M110.773 31.7846C110.773 40.3876 104.015 46.7269 95.7214 46.7269C87.4279 46.7269 80.6699 40.3876 80.6699 31.7846C80.6699 23.1278 87.4279 16.8423 95.7214 16.8423C104.015 16.8423 110.773 23.121 110.773 31.7846ZM104.184 31.7846C104.184 26.4086 100.267 22.7303 95.7214 22.7303C91.1755 22.7303 87.2587 26.4086 87.2587 31.7846C87.2587 37.1067 91.1755 40.8389 95.7214 40.8389C100.267 40.8389 104.184 37.1 104.184 31.7846Z" fill="#4F4F4F"/>
<path d="M141.891 17.745V44.5711C141.891 55.6061 135.356 60.113 127.631 60.113C120.358 60.113 115.982 55.2692 114.331 51.308L120.068 48.9299C121.089 51.3619 123.592 54.2318 127.624 54.2318C132.569 54.2318 135.633 51.1935 135.633 45.4739V43.3248H135.403C133.928 45.137 131.087 46.7202 127.502 46.7202C120 46.7202 113.127 40.2124 113.127 31.8385C113.127 23.404 120 16.8423 127.502 16.8423C131.081 16.8423 133.922 18.4254 135.403 20.1838H135.633V17.7518H141.891V17.745ZM136.1 31.8385C136.1 26.577 132.576 22.7303 128.091 22.7303C123.545 22.7303 119.736 26.577 119.736 31.8385C119.736 37.0461 123.545 40.8389 128.091 40.8389C132.576 40.8389 136.1 37.0461 136.1 31.8385Z" fill="#4F4F4F"/>
<path d="M152.206 2.021V45.8105H145.779V2.021H152.206Z" fill="#4F4F4F"/>
<path d="M177.249 36.7024L182.363 40.0978C180.713 42.5298 176.735 46.7201 169.862 46.7201C161.338 46.7201 154.973 40.1584 154.973 31.7778C154.973 22.8919 161.393 16.8354 169.125 16.8354C176.911 16.8354 180.719 23.0064 181.964 26.3411L182.647 28.0388L162.59 36.3117C164.126 39.3096 166.513 40.8388 169.862 40.8388C173.217 40.8388 175.544 39.195 177.249 36.7024ZM161.508 31.3264L174.915 25.782C174.178 23.9159 171.959 22.6157 169.348 22.6157C165.999 22.6157 161.338 25.5597 161.508 31.3264Z" fill="#4F4F4F"/>
<path d="M23.8733 27.897V21.5577H45.3241C45.5338 22.6625 45.6421 23.9695 45.6421 25.3842C45.6421 30.1404 44.3365 36.0217 40.1288 40.212C36.0362 44.4562 30.8071 46.7198 23.88 46.7198C11.0406 46.7198 0.244141 36.3046 0.244141 23.5181C0.244141 10.7316 11.0406 0.316406 23.88 0.316406C30.983 0.316406 36.043 3.09199 39.8447 6.70967L35.353 11.1829C32.6268 8.63641 28.9333 6.65578 23.8733 6.65578C14.4974 6.65578 7.16444 14.1808 7.16444 23.5181C7.16444 32.8554 14.4974 40.3804 23.8733 40.3804C29.9547 40.3804 33.4183 37.9484 35.6371 35.7387C37.4365 33.9467 38.6203 31.3867 39.0871 27.8903L23.8733 27.897Z" fill="#4F4F4F"/>
</svg>

<svg width="184" height="62" fill="none" xmlns="http://www.w3.org/2000/svg"><path d="M78.302 31.785c0 8.603-6.758 14.942-15.051 14.942-8.294 0-15.052-6.34-15.052-14.942 0-8.664 6.758-14.943 15.052-14.943 8.293 0 15.051 6.279 15.051 14.943zm-6.589 0c0-5.376-3.916-9.055-8.462-9.055-4.546 0-8.463 3.679-8.463 9.055 0 5.322 3.917 9.054 8.463 9.054 4.546 0 8.462-3.739 8.462-9.054zm39.06 0c0 8.603-6.758 14.942-15.052 14.942-8.293 0-15.051-6.34-15.051-14.942 0-8.657 6.758-14.943 15.051-14.943 8.294 0 15.052 6.279 15.052 14.943zm-6.589 0c0-5.376-3.917-9.055-8.463-9.055-4.546 0-8.462 3.679-8.462 9.055 0 5.322 3.916 9.054 8.462 9.054 4.546 0 8.463-3.739 8.463-9.054zm37.707-14.04v26.826c0 11.035-6.535 15.542-14.26 15.542-7.273 0-11.649-4.844-13.3-8.805l5.737-2.378c1.021 2.432 3.524 5.302 7.556 5.302 4.945 0 8.009-3.038 8.009-8.758v-2.15h-.23c-1.475 1.813-4.316 3.396-7.901 3.396-7.502 0-14.375-6.508-14.375-14.881 0-8.435 6.873-14.997 14.375-14.997 3.579 0 6.42 1.583 7.901 3.342h.23v-2.432h6.258v-.007zM136.1 31.838c0-5.261-3.524-9.108-8.009-9.108-4.546 0-8.355 3.847-8.355 9.108 0 5.208 3.809 9 8.355 9 4.485 0 8.009-3.792 8.009-9zm16.106-29.817v43.79h-6.427V2.02h6.427zm25.043 34.681l5.114 3.396c-1.65 2.432-5.628 6.622-12.501 6.622-8.524 0-14.889-6.562-14.889-14.942 0-8.886 6.42-14.943 14.152-14.943 7.786 0 11.594 6.171 12.839 9.506l.683 1.698-20.057 8.273c1.536 2.998 3.923 4.527 7.272 4.527 3.355 0 5.682-1.644 7.387-4.137zm-15.741-5.376l13.407-5.544c-.737-1.866-2.956-3.166-5.567-3.166-3.349 0-8.01 2.944-7.84 8.71zM23.873 27.897v-6.34h21.451c.21 1.106.318 2.413.318 3.827 0 4.756-1.306 10.638-5.513 14.828-4.093 4.244-9.322 6.508-16.249 6.508C11.04 46.72.244 36.305.244 23.518.244 10.732 11.041.316 23.88.316c7.103 0 12.163 2.776 15.965 6.394l-4.492 4.473c-2.726-2.547-6.42-4.527-11.48-4.527-9.376 0-16.709 7.525-16.709 16.862 0 9.337 7.333 16.862 16.71 16.862 6.08 0 9.544-2.432 11.763-4.641 1.8-1.792 2.983-4.352 3.45-7.849l-15.214.007z" fill="#4F4F4F"/></svg>
